logotypes/mink.svg

<?xml version="1.0" encoding="UTF-8" standalone="no"?>
<!-- Created with Inkscape (http://www.inkscape.org/) -->

<svg
   width="43.424065mm"
   height="15.290215mm"
   viewBox="0 0 43.424065 15.290215"
   version="1.1"
   id="svg5"
   inkscape:version="1.2.2 (b0a8486541, 2022-12-01)"
   sodipodi:docname="mink.svg"
   xml:space="preserve"
   inkscape:export-filename="tmp.png"
   inkscape:export-xdpi="171.03999"
   inkscape:export-ydpi="171.03999"
   xmlns:inkscape="http://www.inkscape.org/namespaces/inkscape"
   xmlns:sodipodi="http://sodipodi.sourceforge.net/DTD/sodipodi-0.dtd"
   xmlns="http://www.w3.org/2000/svg"
   xmlns:svg="http://www.w3.org/2000/svg"><sodipodi:namedview
     id="namedview7"
     pagecolor="#ffffff"
     bordercolor="#000000"
     borderopacity="0.25"
     inkscape:showpageshadow="2"
     inkscape:pageopacity="0.0"
     inkscape:pagecheckerboard="0"
     inkscape:deskcolor="#d1d1d1"
     inkscape:document-units="mm"
     showgrid="false"
     inkscape:zoom="0.96403488"
     inkscape:cx="280.59151"
     inkscape:cy="228.72616"
     inkscape:window-width="1920"
     inkscape:window-height="1149"
     inkscape:window-x="0"
     inkscape:window-y="27"
     inkscape:window-maximized="1"
     inkscape:current-layer="layer1"
     showguides="true"><inkscape:grid
       type="xygrid"
       id="grid13315" /><sodipodi:guide
       position="-0.14421492,89.980221"
       orientation="1,0"
       id="guide13317"
       inkscape:locked="false" /><sodipodi:guide
       position="-13.373381,86.011471"
       orientation="0,-1"
       id="guide13319"
       inkscape:locked="false" /><sodipodi:guide
       position="103.04328,-7.91562"
       orientation="1,0"
       id="guide4551"
       inkscape:locked="false" /></sodipodi:namedview><defs
     id="defs2"><rect
       x="165.33238"
       y="165.66167"
       width="170.87849"
       height="72.536377"
       id="rect827-6-7" /></defs><g
     inkscape:label="Layer 1"
     inkscape:groupmode="layer"
     id="layer1"
     transform="translate(-10.727548,-81.304586)"><g
       aria-label="Mink"
       transform="matrix(0.26458333,0,0,0.26458333,-33.693884,40.550434)"
       id="text825-4-6"
       style="font-weight:300;font-size:53.3333px;font-family:'Jost*';-inkscape-font-specification:'Jost*, Light';white-space:pre;shape-inside:url(#rect827-6-7);display:inline"><path
         d="m 174.02536,182.2746 13.11999,25.22665 13.11999,-25.22665 3.2,29.54665 h 2.93333 l -4.31999,-38.77331 -14.93333,28.69332 -14.93332,-28.69332 -4.32,38.77331 h 2.93333 z"
         id="path2432" /><path
         d="m 213.17204,176.19461 c 0,1.06666 0.85334,1.97333 1.97334,1.97333 1.12,0 1.97333,-0.90667 1.97333,-1.97333 0,-1.06667 -0.85333,-1.97334 -1.97333,-1.97334 -1.12,0 -1.97334,0.90667 -1.97334,1.97334 z m 0.58667,11.09332 v 24.53332 h 2.77333 v -24.53332 z"
         id="path2434" /><path
         d="m 241.27871,196.03459 v 15.78666 h 2.77333 v -16.10666 c 0,-5.43999 -2.77333,-8.95999 -7.89332,-8.95999 -3.62667,0 -6.45333,2.08 -7.84,5.65333 v -5.12 h -2.77333 v 24.53332 h 2.77333 v -14.93332 c 0,-4.21333 3.04,-7.52 7.2,-7.52 3.94666,0 5.75999,2.50667 5.75999,6.66666 z"
         id="path2436" /><path
         d="m 265.49199,187.28793 -10.50666,9.22666 V 170.22128 H 252.212 v 41.59997 h 2.77333 v -13.22666 l 11.57333,13.22666 h 3.52 L 257.492,197.42126 269.06532,187.28793 Z"
         id="path2438" /></g><path
       d="m 47.74414,96.346336 c 0.213233,-0.105149 0.601077,-0.488474 0.795343,-0.786077 0.194902,-0.298569 0.235854,-0.491474 0.151448,-0.71345 -0.01942,-0.05126 -0.04132,-0.183739 -0.0485,-0.294511 l -0.01307,-0.201399 0.257802,-0.09074 c 0.141784,-0.04988 0.35338,-0.145457 0.470216,-0.212304 0.116836,-0.06681 0.174481,-0.08043 0.261271,-0.121539 0.363567,-0.172356 0.541803,-0.23924 1.086873,-0.525018 0.139134,-0.07298 0.357337,-0.216518 0.484894,-0.319045 0.127557,-0.102517 0.354116,-0.272682 0.503465,-0.378134 0.32234,-0.227608 0.982516,-0.874947 1.22609,-1.202256 0.24282,-0.326296 0.505738,-0.768886 0.732527,-1.233277 0.146303,-0.299545 0.22724,-0.539236 0.330328,-0.978236 0.166364,-0.708453 0.203911,-1.272306 0.138204,-2.074966 -0.05126,-0.625786 -0.138793,-0.93538 -0.530401,-1.875232 -0.196439,-0.471422 -0.684664,-1.365831 -0.977417,-1.790614 -0.503125,-0.729951 -1.105315,-0.842084 -1.378697,-0.256624 -0.07325,0.156886 -0.12244,0.212506 -0.119836,0.671367 0,0 -0.01067,0.320213 0.04215,0.555054 0.05282,0.234832 0.389583,0.834032 0.389583,0.834032 0.581181,1.244145 0.676464,1.550528 0.744757,2.394461 0.03294,0.4067 0.0277,0.544868 -0.0369,0.969798 -0.09157,0.602871 -0.163152,0.759214 -0.786399,1.717463 -0.761607,1.170948 -1.119358,1.455152 -1.699066,1.349773 -0.422851,-0.07684 -0.742632,-0.308554 -0.971068,-0.703548 -0.08835,-0.152736 -0.241274,-0.364985 -0.339898,-0.471661 -0.09862,-0.106677 -0.248746,-0.279722 -0.333631,-0.384549 -0.14714,-0.181706 -0.669038,-0.648268 -1.240557,-1.108914 -0.145566,-0.117342 -0.364284,-0.300639 -0.486035,-0.407316 -0.12175,-0.106676 -0.376405,-0.298118 -0.565886,-0.425436 -0.484342,-0.325422 -0.718116,-0.521143 -1.131929,-0.947665 -0.352589,-0.363429 -0.728055,-0.867704 -0.900907,-1.210023 -0.256375,-0.507633 -0.602338,-1.013868 -0.93572,-1.369043 -0.593172,-0.632044 -1.1108,-0.973819 -1.774749,-1.17196 -0.879741,-0.262504 -1.923657,-0.698496 -2.414698,-1.00843 -0.134165,-0.08466 -0.145521,-0.104836 -0.123738,-0.219445 0.01316,-0.06948 0.04767,-0.173322 0.07666,-0.23093 0.07933,-0.15777 0.06368,-0.33504 -0.04583,-0.522018 -0.121603,-0.207482 -0.288078,-0.299489 -0.541573,-0.299333 -0.258584,1.47e-4 -0.452933,0.106456 -0.725487,0.396743 -0.198656,0.211595 -0.249951,0.243721 -0.509483,0.319127 -0.158727,0.04611 -0.338555,0.127475 -0.399632,0.180785 -0.06101,0.05328 -0.22551,0.188902 -0.365417,0.301321 -0.317425,0.255041 -0.611513,0.578172 -0.688115,0.756067 -0.03212,0.07463 -0.06019,0.241872 -0.0623,0.371555 -0.0055,0.316349 0.141932,0.563798 0.441964,0.74369 0.253246,0.151852 0.327668,0.15453 0.765877,0.02752 0.187006,-0.0542 0.427295,-0.09904 0.533944,-0.09963 0.208807,-0.0018 0.55385,0.10456 0.811789,0.248728 0.190292,0.106364 0.759279,0.566816 0.759279,0.61443 0,0.02954 -0.109851,0.03929 -0.552782,0.04887 -0.06939,0.0018 -0.373285,-0.01169 -0.675443,-0.02936 -0.475774,-0.02779 -0.567543,-0.02347 -0.684959,0.0323 -0.289016,0.137156 -0.254589,0.462799 0.08006,0.757383 0.335858,0.295624 0.839516,0.467768 1.600387,0.546957 0.224019,0.02337 0.485852,0.07224 0.581853,0.108719 0.240326,0.09129 0.590651,0.32107 0.870686,0.571086 0.129177,0.115309 0.443013,0.349423 0.697428,0.52026 0.272323,0.182855 0.501422,0.367791 0.557052,0.44963 0.113992,0.167763 0.481121,0.942125 0.549285,1.158625 0.04702,0.149248 0.308259,0.741021 0.553554,1.253947 0.0646,0.134946 0.221755,0.386159 0.349359,0.558266 0.383895,0.517775 0.431896,0.624378 0.343708,0.763687 -0.0277,0.04371 -0.09009,0.01877 -0.316597,-0.126076 -0.331745,-0.212248 -0.478729,-0.231298 -0.620495,-0.08043 -0.07951,0.08466 -0.09355,0.137063 -0.09092,0.339428 0.0018,0.13769 0.02927,0.288732 0.0646,0.355681 0.06874,0.130244 0.260811,0.317848 0.43658,0.426476 0.06405,0.03957 0.231354,0.164552 0.371877,0.277762 0.140515,0.11322 0.355377,0.251581 0.477477,0.307487 0.272673,0.124824 0.43082,0.10605 0.636756,-0.07565 0.07877,-0.06939 0.21062,-0.165085 0.293084,-0.212497 l 0.14992,-0.08623 0.339511,0.288768 c 0.631805,0.53734 1.297107,0.902812 1.914297,1.051489 0.222989,0.05374 0.429164,0.09771 0.458161,0.09776 0.03046,2.8e-5 0.05604,0.0473 0.06055,0.11172 0.0037,0.06147 0.06341,0.236046 0.131367,0.388092 0.118042,0.263967 0.121631,0.286339 0.07951,0.496038 -0.08779,0.437391 -0.03322,0.749028 0.154401,0.880432 0.111664,0.07822 0.174665,0.07841 0.332186,7.45e-4 z"
       fill="#d4d4d8"
       stroke-width="0.733062"
       id="path3563-4"
       style="fill:#f0581a;fill-opacity:1" /></g></svg>

<?xml version="1.0" encoding="UTF-8" standalone="no"?>
<!-- Created with Inkscape (http://www.inkscape.org/) -->

<svg
   width="43.424065mm"
   height="15.290215mm"
   viewBox="0 0 43.424065 15.290215"
   version="1.1"
   id="svg5"
   inkscape:version="1.3.2 (091e20e, 2023-11-25)"
   sodipodi:docname="mink.svg"
   xml:space="preserve"
   inkscape:export-filename="tmp.png"
   inkscape:export-xdpi="171.03999"
   inkscape:export-ydpi="171.03999"
   xmlns:inkscape="http://www.inkscape.org/namespaces/inkscape"
   xmlns:sodipodi="http://sodipodi.sourceforge.net/DTD/sodipodi-0.dtd"
   xmlns="http://www.w3.org/2000/svg"
   xmlns:svg="http://www.w3.org/2000/svg"><sodipodi:namedview
     id="namedview7"
     pagecolor="#ffffff"
     bordercolor="#000000"
     borderopacity="0.25"
     inkscape:showpageshadow="2"
     inkscape:pageopacity="0.0"
     inkscape:pagecheckerboard="0"
     inkscape:deskcolor="#d1d1d1"
     inkscape:document-units="mm"
     showgrid="false"
     inkscape:zoom="4.0824407"
     inkscape:cx="121.86337"
     inkscape:cy="26.454763"
     inkscape:window-width="872"
     inkscape:window-height="527"
     inkscape:window-x="67"
     inkscape:window-y="203"
     inkscape:window-maximized="0"
     inkscape:current-layer="layer1"
     showguides="true"><inkscape:grid
       type="xygrid"
       id="grid13315"
       originx="0"
       originy="0"
       spacingy="1"
       spacingx="1"
       units="mm"
       visible="false" /><sodipodi:guide
       position="-0.14421492,89.980221"
       orientation="1,0"
       id="guide13317"
       inkscape:locked="false" /><sodipodi:guide
       position="-13.373381,86.011471"
       orientation="0,-1"
       id="guide13319"
       inkscape:locked="false" /><sodipodi:guide
       position="103.04328,-7.91562"
       orientation="1,0"
       id="guide4551"
       inkscape:locked="false" /></sodipodi:namedview><defs
     id="defs2"><rect
       x="165.33238"
       y="165.66167"
       width="170.87849"
       height="72.536377"
       id="rect827-6-7" /></defs><g
     inkscape:label="Layer 1"
     inkscape:groupmode="layer"
     id="layer1"
     transform="translate(-10.727548,-81.304586)"><g
       aria-label="Mink"
       transform="matrix(0.26458333,0,0,0.26458333,-33.693884,40.550434)"
       id="text825-4-6"
       style="font-weight:300;font-size:53.3333px;font-family:'Jost*';-inkscape-font-specification:'Jost*, Light';white-space:pre;shape-inside:url(#rect827-6-7);display:inline"><path
         d="m 174.02536,182.2746 13.11999,25.22665 13.11999,-25.22665 3.2,29.54665 h 2.93333 l -4.31999,-38.77331 -14.93333,28.69332 -14.93332,-28.69332 -4.32,38.77331 h 2.93333 z"
         id="path2432" /><path
         d="m 213.17204,176.19461 c 0,1.06666 0.85334,1.97333 1.97334,1.97333 1.12,0 1.97333,-0.90667 1.97333,-1.97333 0,-1.06667 -0.85333,-1.97334 -1.97333,-1.97334 -1.12,0 -1.97334,0.90667 -1.97334,1.97334 z m 0.58667,11.09332 v 24.53332 h 2.77333 v -24.53332 z"
         id="path2434" /><path
         d="m 241.27871,196.03459 v 15.78666 h 2.77333 v -16.10666 c 0,-5.43999 -2.77333,-8.95999 -7.89332,-8.95999 -3.62667,0 -6.45333,2.08 -7.84,5.65333 v -5.12 h -2.77333 v 24.53332 h 2.77333 v -14.93332 c 0,-4.21333 3.04,-7.52 7.2,-7.52 3.94666,0 5.75999,2.50667 5.75999,6.66666 z"
         id="path2436" /><path
         d="m 265.49199,187.28793 -10.50666,9.22666 V 170.22128 H 252.212 v 41.59997 h 2.77333 v -13.22666 l 11.57333,13.22666 h 3.52 L 257.492,197.42126 269.06532,187.28793 Z"
         id="path2438" /></g><path
       id="path3563-4"
       style="fill:#f0581a;fill-opacity:1"
       d="M 38.039059 81.304586 C 37.780475 81.304733 37.586076 81.411174 37.313522 81.701461 C 37.114866 81.913056 37.064041 81.944899 36.804509 82.020305 C 36.645782 82.066415 36.465611 82.147862 36.404534 82.201172 C 36.343524 82.254452 36.179088 82.390027 36.039181 82.502446 C 35.721757 82.757486 35.42797 83.080577 35.351368 83.258472 C 35.319248 83.333102 35.29095 83.500343 35.28884 83.630025 C 35.28334 83.946374 35.430641 84.193757 35.730673 84.373649 C 35.983919 84.525501 36.058309 84.528564 36.496518 84.401555 C 36.683524 84.347355 36.924203 84.302409 37.030852 84.301819 C 37.239659 84.300019 37.584233 84.406215 37.842172 84.550383 C 38.032464 84.656747 38.601816 85.117202 38.601816 85.164815 C 38.601816 85.194355 38.491808 85.204328 38.048878 85.213908 C 37.979488 85.215708 37.675624 85.202123 37.373467 85.184453 C 36.897693 85.156663 36.805653 85.160722 36.688237 85.216492 C 36.399222 85.353648 36.433687 85.679485 36.768336 85.974068 C 37.104193 86.269692 37.607885 86.442133 38.368755 86.521322 C 38.592774 86.544692 38.854631 86.593363 38.950631 86.629842 C 39.190957 86.721132 39.541345 86.950851 39.821379 87.200867 C 39.950556 87.316176 40.264596 87.550412 40.519011 87.721249 C 40.791334 87.904103 41.020453 88.088995 41.076083 88.170834 C 41.190075 88.338596 41.55724 89.112919 41.625404 89.329419 C 41.672424 89.478667 41.933563 90.070164 42.178858 90.583089 C 42.243458 90.718035 42.400587 90.969605 42.528191 91.141712 C 42.912086 91.659486 42.960027 91.76618 42.871839 91.905489 C 42.844139 91.949199 42.781569 91.924245 42.555063 91.779399 C 42.223318 91.567151 42.076711 91.547916 41.934945 91.698784 C 41.855436 91.783444 41.841365 91.835933 41.843995 92.038298 C 41.845795 92.175988 41.873261 92.326883 41.90859 92.393832 C 41.97733 92.524075 42.169488 92.711534 42.345256 92.820162 C 42.409306 92.859732 42.576287 92.984971 42.71681 93.098181 C 42.857325 93.211401 43.0722 93.34975 43.1943 93.405656 C 43.466973 93.53048 43.625018 93.511908 43.830954 93.330209 C 43.909724 93.260819 44.041495 93.164714 44.123959 93.117302 L 44.274338 93.031002 L 44.613852 93.319873 C 45.245656 93.857213 45.910757 94.222812 46.527947 94.371489 C 46.750936 94.425229 46.95732 94.469107 46.986317 94.469157 C 47.016777 94.469185 47.042268 94.516358 47.046778 94.580778 C 47.050478 94.642248 47.110079 94.816822 47.178036 94.968868 C 47.296078 95.232835 47.299739 95.255263 47.257618 95.464962 C 47.169828 95.902353 47.22451 96.214125 47.412131 96.345528 C 47.523794 96.423748 47.586372 96.42371 47.743893 96.346045 L 47.743893 96.346562 C 47.957126 96.241413 48.345444 95.857649 48.53971 95.560047 C 48.734612 95.261478 48.775528 95.068888 48.691122 94.846912 C 48.671702 94.795652 48.649726 94.663128 48.642546 94.552356 L 48.62911 94.350818 L 48.886976 94.260384 C 49.02876 94.210504 49.240396 94.114841 49.357231 94.047994 C 49.474067 93.981184 49.531924 93.967664 49.618714 93.926555 C 49.982281 93.754199 50.1604 93.6873 50.70547 93.401522 C 50.844603 93.328542 51.062638 93.184689 51.190194 93.082162 C 51.317751 92.979645 51.544691 92.809342 51.69404 92.70389 C 52.016379 92.476282 52.676231 91.829205 52.919805 91.501896 C 53.162624 91.175601 53.425788 90.73277 53.652576 90.26838 C 53.798879 89.968835 53.879701 89.729145 53.982789 89.290145 C 54.149153 88.581693 54.186989 88.017996 54.121282 87.215336 C 54.070022 86.589551 53.982172 86.27985 53.590565 85.339999 C 53.394126 84.868577 52.906116 83.974193 52.613363 83.54941 C 52.110239 82.81946 51.508018 82.707636 51.234636 83.293095 C 51.161386 83.449981 51.112143 83.505511 51.114747 83.964372 C 51.114747 83.964372 51.103785 84.284536 51.156605 84.519377 C 51.209425 84.754209 51.546245 85.353434 51.546245 85.353434 C 52.127426 86.597578 52.223126 86.903671 52.291419 87.747604 C 52.324359 88.154303 52.318812 88.292641 52.254212 88.71757 C 52.162642 89.320441 52.090943 89.477047 51.467697 90.435295 C 50.706091 91.606242 50.348283 91.890462 49.768576 91.785083 C 49.345725 91.708243 49.026011 91.476244 48.797576 91.08125 C 48.709226 90.928514 48.556685 90.71612 48.458062 90.609444 C 48.359442 90.502768 48.209117 90.329799 48.124232 90.224972 C 47.977092 90.043266 47.454999 89.576641 46.883481 89.115996 C 46.737915 88.998654 46.519473 88.815462 46.397722 88.708785 C 46.275972 88.602109 46.021346 88.410806 45.831865 88.283488 C 45.347524 87.958067 45.113447 87.762264 44.699635 87.335742 C 44.347046 86.972314 43.971766 86.468316 43.798914 86.125997 C 43.54254 85.618365 43.196436 85.111746 42.863054 84.756572 C 42.269883 84.124528 41.752434 83.782691 41.088485 83.58455 C 40.208745 83.322046 39.164686 82.886277 38.673646 82.576343 C 38.539481 82.491683 38.528356 82.471327 38.550139 82.356718 C 38.563299 82.287238 38.59763 82.183332 38.62662 82.125725 C 38.70595 81.967955 38.690138 81.79077 38.580628 81.603793 C 38.459025 81.396311 38.292554 81.30443 38.039059 81.304586 z M 36.778671 82.561874 A 0.22930555 0.22930555 0 0 1 37.008114 82.7908 A 0.22930555 0.22930555 0 0 1 36.778671 83.020244 A 0.22930555 0.22930555 0 0 1 36.549744 82.7908 A 0.22930555 0.22930555 0 0 1 36.778671 82.561874 z " /></g></svg>
